images/people/people-07.svg

<?xml version="1.0" standalone="no"?><!DOCTYPE svg PUBLIC "-//W3C//DTD SVG 1.1//EN" "http://www.w3.org/Graphics/SVG/1.1/DTD/svg11.dtd"><svg width="120px" height="192px" version="1.1" xmlns="http://www.w3.org/2000/svg" xmlns:xlink="http://www.w3.org/1999/xlink" xml:space="preserve" style="fill-rule:evenodd;clip-rule:evenodd;stroke-linejoin:round;stroke-miterlimit:1.41421;"><g><g id="people-07" transform="matrix(1,0,0,1,-1668.75,-48)"><g transform="matrix(1,0,0,1,0,-12)"><path d="M1734.98,231.02l0.943,6.871l-6.697,-0.172l-0.516,-7.384l6.27,0.685Z" style="fill:#2a2b2a;fill-rule:nonzero;"/></g><g transform="matrix(1,0,0,1,0,-12)"><path d="M1722.75,249.311l0.774,2.189l5.28,0l1.353,-9.981l-6.03,-1.266l-1.377,9.058Z" style="fill:#2a2b2a;fill-rule:nonzero;"/></g><g transform="matrix(1,0,0,1,0,-12)"><path d="M1720.82,130.405l2.834,-1.889l2.061,-5.839l4.757,1.357l1.51,3.709l3.262,1.632l-7.103,11.462l-7.321,-10.432Z" style="fill:#ceab97;fill-rule:nonzero;"/></g><g transform="matrix(1,0,0,1,0,-12)"><path d="M1723.11,126.839l9.286,0l4.616,-5.935l-3.324,-12.694l-8.234,-1.375l-5.116,2.034l-2.336,12.035l5.108,5.935Z" style="fill:#e1c5b5;fill-rule:nonzero;"/></g><g transform="matrix(1,0,0,1,0,-12)"><path d="M1734,113.456l2.822,0.047l0.223,4.916l-2.879,-0.15l-0.166,-4.813Z" style="fill:#e1c5b5;fill-rule:nonzero;"/></g><g transform="matrix(1,0,0,1,0,-12)"><path d="M1720.71,114.125l-2.849,0.775l0.224,4.122l2.518,0.098l0.107,-4.995Z" style="fill:#e1c5b5;fill-rule:nonzero;"/></g><g transform="matrix(1,0,0,1,0,-12)"><path d="M1722.96,107.05l0.43,-1.718l12.865,2.918l4.82,26.417l-5.559,-1.166l-3.498,-22l-7.511,-2.476l-1.547,-1.975Z" style="fill:#f5f3e9;fill-rule:nonzero;"/></g><g transform="matrix(1,0,0,1,0,-12)"><path d="M1744.65,168.531l-9.661,62.489l-5.41,0l-1.201,-52.358l2.794,23.96l-1.078,38.96l-5.923,-1.288l-5.594,-37.427l-6.533,-33.822l32.606,-0.514Z" style="fill:#c1beba;fill-rule:nonzero;"/></g><g transform="matrix(1,0,0,1,0,-12)"><path d="M1724.55,109.024l-3.479,1.417l-1.109,6.184l-4.588,-4.358l0.582,-3.142l7.5,-3.75l1.094,3.649Z" style="fill:#f5f3e9;fill-rule:nonzero;"/></g><g transform="matrix(1,0,0,1,0,-12)"><path d="M1728.92,178.562l2.72,26.107l-1.282,26.36l5.478,-5.279l5.355,-34.875l-12.271,-12.313Z" style="fill:#171817;fill-opacity:0.25;fill-rule:nonzero;"/></g><g transform="matrix(1,0,0,1,0,-12)"><path d="M1703.98,164.49l-2.349,5.768l1.201,7.992l2.654,-1.018l0.541,-6.748l-0.22,2.034l2.4,0.107l-0.872,-5.549l-3.355,-2.586Z" style="fill:#e1c5b5;fill-rule:nonzero;"/></g><g transform="matrix(1,0,0,1,0,-12)"><path d="M1754.09,164.768l1.776,4.479l-0.907,7.378l-2.899,-0.381l-0.588,-6.746l0.232,2.033l-2.494,0.344l0.837,-5.593l4.043,-1.514Z" style="fill:#e1c5b5;fill-rule:nonzero;"/></g><g transform="matrix(1,0,0,1,0,-12)"><path d="M1735.37,129.246l6.225,2.705l12.709,33.659l-4.356,0.601l-9.115,-22.124l3.873,24.442l-32.668,0.516l4.389,-24.709l-9.026,22.819l-4.056,-1.459l11.631,-31.856l5.839,-3.565l8.371,3.502l6.184,-4.531Z" style="fill:#ae1f25;fill-rule:nonzero;"/></g></g></g></svg>

<?xml version="1.0" encoding="UTF-8" standalone="no"?>
<!DOCTYPE svg PUBLIC "-//W3C//DTD SVG 1.1//EN" "http://www.w3.org/Graphics/SVG/1.1/DTD/svg11.dtd">
<svg width="100%" height="100%" viewBox="0 0 140 220" version="1.1" xmlns="http://www.w3.org/2000/svg" xmlns:xlink="http://www.w3.org/1999/xlink" xml:space="preserve" xmlns:serif="http://www.serif.com/" style="fill-rule:evenodd;clip-rule:evenodd;stroke-linejoin:round;stroke-miterlimit:2;">
    <g id="people-07" transform="matrix(1.27,0,0,1.27,-2125.51,-84.8)">
        <g transform="matrix(1,0,0,1,0,-12)">
            <path d="M1734.98,231.021L1735.93,237.892L1729.23,237.72L1728.71,230.336L1734.98,231.021Z" style="fill:rgb(42,43,42);fill-rule:nonzero;"/>
        </g>
        <g transform="matrix(1,0,0,1,0,-12)">
            <path d="M1722.75,249.311L1723.52,251.5L1728.8,251.5L1730.15,241.519L1724.12,240.253L1722.75,249.311Z" style="fill:rgb(42,43,42);fill-rule:nonzero;"/>
        </g>
        <g transform="matrix(1,0,0,1,0,-12)">
            <path d="M1720.82,130.405L1723.65,128.516L1725.71,122.677L1730.47,124.034L1731.98,127.743L1735.24,129.375L1728.14,140.837L1720.82,130.405Z" style="fill:rgb(206,171,151);fill-rule:nonzero;"/>
        </g>
        <g transform="matrix(1,0,0,1,0,-12)">
            <path d="M1723.11,126.839L1732.39,126.839L1737.01,120.904L1733.69,108.21L1725.45,106.835L1720.34,108.869L1718,120.904L1723.11,126.839Z" style="fill:rgb(225,197,181);fill-rule:nonzero;"/>
        </g>
        <g transform="matrix(1,0,0,1,0,-12)">
            <path d="M1734,113.456L1736.82,113.503L1737.04,118.419L1734.16,118.269L1734,113.456Z" style="fill:rgb(225,197,181);fill-rule:nonzero;"/>
        </g>
        <g transform="matrix(1,0,0,1,0,-12)">
            <path d="M1720.71,114.125L1717.86,114.9L1718.08,119.022L1720.6,119.12L1720.71,114.125Z" style="fill:rgb(225,197,181);fill-rule:nonzero;"/>
        </g>
        <g transform="matrix(1,0,0,1,0,-12)">
            <path d="M1722.96,107.05L1723.39,105.332L1736.26,108.25L1741.08,134.667L1735.52,133.501L1732.02,111.501L1724.51,109.025L1722.96,107.05Z" style="fill:rgb(245,243,233);fill-rule:nonzero;"/>
        </g>
        <g transform="matrix(1,0,0,1,0,-12)">
            <path d="M1744.65,168.531L1734.99,231.02L1729.58,231.02L1728.37,178.662L1731.17,202.622L1730.09,241.582L1724.17,240.294L1718.57,202.867L1712.04,169.045L1744.65,168.531Z" style="fill:rgb(193,190,186);fill-rule:nonzero;"/>
        </g>
        <g transform="matrix(1,0,0,1,0,-12)">
            <path d="M1724.55,109.024L1721.07,110.441L1719.96,116.625L1715.38,112.267L1715.96,109.125L1723.46,105.375L1724.55,109.024Z" style="fill:rgb(245,243,233);fill-rule:nonzero;"/>
        </g>
        <g transform="matrix(1,0,0,1,0,-12)">
            <path d="M1728.92,178.563L1731.64,204.67L1730.36,231.029L1735.83,225.75L1741.19,190.875L1728.92,178.563Z" style="fill:rgb(23,24,23);fill-opacity:0.25;fill-rule:nonzero;"/>
        </g>
        <g transform="matrix(1,0,0,1,0,-12)">
            <path d="M1703.98,164.49L1701.63,170.258L1702.83,178.25L1705.49,177.232L1706.03,170.484L1705.81,172.518L1708.21,172.625L1707.34,167.076L1703.98,164.49Z" style="fill:rgb(225,197,181);fill-rule:nonzero;"/>
        </g>
        <g transform="matrix(1,0,0,1,0,-12)">
            <path d="M1754.09,164.768L1755.86,169.247L1754.96,176.625L1752.06,176.244L1751.47,169.498L1751.7,171.531L1749.21,171.875L1750.05,166.282L1754.09,164.768Z" style="fill:rgb(225,197,181);fill-rule:nonzero;"/>
        </g>
        <g transform="matrix(1,0,0,1,0,-12)">
            <path d="M1735.37,129.246L1741.6,131.951L1754.31,165.61L1749.95,166.211L1740.83,144.087L1744.71,168.529L1712.04,169.045L1716.43,144.336L1707.4,167.155L1703.35,165.696L1714.98,133.84L1720.82,130.275L1729.19,133.777L1735.37,129.246Z" style="fill:rgb(174,31,37);fill-rule:nonzero;"/>
        </g>
    </g>
</svg>
